X:1
T: The Road to Lisdoonvarna
S: Bernie Waugh
R: Jig
M: 6/8
K: E Dorian
D\
|:\
"Em"E2B B2A|B2c d3|"D"F2A ABA|"Bm"D2E FED|
"Em(C)"E2B B2A|"G(C)"B2c d3|"A"cdc B2A|"Em"B2E E3:|
|:\
"Em"e2f "F#m"gfe|"G"~d2B Bcd|"A"c2A ABc|"Bm"d2B B3|
"Em"e2f "F#m"gfe|"G"d2B Bcd|1\
"A"cdc "Bm"B2A|"Em"B2E E3:|2\
"C#m"cdc "D"B2A|"E"B2E E2|]


